X:35
T:O'Sullivan's March
T:Mairse\'ail U\'i Sh\'uilleabh\'ain
R:march
H:See also #20
D:Catherine McEvoy, Caoimh\'in \'O Raghallaigh & M\'iche\'al \'O Raghallaigh
Z:id:hn-march-35
M:6/8
L:1/8
Q:3/8=110
K:D
D2E F2A | BAF E2F | D2E F2D | FEE EFE |
D2E F2A | BAF E2F | D2E F2D |1 EDD D2D :|2 EDD DFA ||
|: B3 B3 | BcB BAF | A2A ABc | BAF ABc |
de/f/d Bc/d/B | AFD E2F | D2E F2D |1 EDD DFA :|2 EDD D2D ||

